X: 2039
T: MISS TROTTER
C: by Jas. McIntosh
Q: "Strathspey."
R: strathspey
B: Kerr's v.2 p.7 #39
Z: 2016 John Chambers <jc:trillian.mit.edu>
M: C
L: 1/8
K: A
c |\
A,>CE<A F<AE>c | d>B d/c/B/A/ G<BB>c |\
A,>CE<A F>Ad<f | d>B d/c/B/A/ E<A Ac |
A,>CE<A F<AE>c | d>B d/c/B/A/ G<BB>c |\
A,>CE<A F>Ad<f | e>c d/c/B/A/ E<A A ||
e |\
a<ec>e f<ae>c | d>B d/c/B/A/ G<BB>g |\
a<ec>e f<ae>c | (3def e>d c<AA>g |
a<ec>e f<ae>c | d>B d/c/B/A/ G<B B>d |\
c<Ae>c d<Bf>d | (3cde (3efg | a<A A |]
